X: 1
P: Marquis of Queensberry
L: 1/8
M: 4/4
R: Reel
C: Athole Collection, arr. T. Traub 5-18-2000
K: C
|: f|"C"ec c/c/c c2 ec|"F"fedc "G"Bagf|"C"ec c/c/c "F"c2 ac|"G"BGAB "C"c3 :|
G|"C"EFGE "F"F2 Ac|"G"BcdB "C"c2 eg|"F"afaf "C"gedc|"G"BGAB "C"c2 GF|
"C"DEGE "F"FGAc|"G"BcdB "Am"cdeg|"F"afaf "C"gedc|"G"BGAB "C"c2 |]
